s.boot

l=I8TLooper();
l.rec;
l.stop;

m=I8TLooper();
m.rec;
m.stop;

n=I8TLooper();
n.rec;
n.stop;




l.play;
l.stop;

m.play;
m.stop;

n.play;
n.stop;
j
n.stop;
l.play;

l.stop;
m.play;

m.stop;

l.play(0);
l.play(1);
l.play(2);
l.play(3);

l.stop(0);
l.stop(1);
l.stop(2);




m.stop(0);
m.stop(1);
m.stop(2);
m.stop(3);


l.stop;
m.stop;
n.play;

n.stop;

l.play;
m.play;
n.play;

l.stop;
m.stop;
n.stop;
l.play(0);

l.stop;
